X: 1
T: O'Boobigan's
M: 4/4
L: 1/8
R: daggy schottischey thingy with some Scotch snaps
K: Gmaj
(3DEF | G2 G>F E<A A>B | c>B A>G A2 D2 | B>A G>F E2 E2 | A>G F>E D2 (3DEF |
G2 G>F E<A A>B | c>B A>G A2 D2 | B>A G>F E>A F>D | G2 B2 G2 :|
|: (3def | g2 a>g f<d d2| e>d c>e d3g | e>d c>e d2 B2 | c>B A<G A2 (3def |
g2 a>g f<d d2 | e>d c>e d3A  | B>A G>F E>A F>D | G2 B2 G2 :|
